X: 28362
T: Muiñeira De Chantada
R: jig
M: 6/8
K: Dmajor
A|:D3 EFG|A4AA|AGA B2A|
A3 E3|E3 FGA|B4AG|ABA GFE|
F2E D2A|D3 EFG|A4AA|AGA d2c|
c3 B3|B_d=d e2d|d3 A3|ABA GFE|1 D4DA:|2 D3d2^c||
|:A2B c2A|B3 A2G|E2F G2A|
F2D d2c|A2B c2A|B3 A2G|E2F G2A|1 D3d2c:|2 D4dA||
|:c2B2FD|B2A2FD|A2G2EC|
B2A2dA|c2B2FD|B2A2FD|A2G2EF|1 D4 dA:|2 D3D3||

